X: 856
T: Gökyüzünde Yalnız Gezen Yıldızlar
C: Teoman Alpay
O: Turkey
F: http://compmusic.upf.edu/node/140
N: nihavent--sarki--duyek--gokyuzunde--teoman_alpay
N: makam= nihavent
N: form= sarki
N: usul= duyek = 8/4
M: 8/4
L: 1/16
K: C _B _e  
Q: 1/4=168
%%MIDI tuningsystem comma53
z2 B4 A2 B3A G4  | z2 c4 =B2 c3_B A4  | \
w:   |   | 
z2 b2 a2 g2 f2 g2 e2 f2  | d16  | 
w:   |   | 
z2 g4 f2 g3f g2 e2  | z2 f4 =e2 f3e f2 d2  | \
w:   |   | 
z2 g2 f2 e2 d2 e2 c2 d2  | 
w:   | 
B2 c2 A2 B2 G8  | z2 B4 A2 B3A G4  | \
w:   |   | 
z2 c4 =B2 c3_B A4  | z2 b2 a2 g2 f2 g2 e2 f2  | 
w:   |   | 
d16  | z2 g4 f2 g3f g2 e2  | z2 f4 =e2 f3e f2 d2  | \
w:   |   |   | 
z2 g2 f2 e2 d2 e2 c2 d2  | 
w:   | 
B2 c2 A2 B2 G8  | z2 B4 B2 B4 B4  | A4 c4 c2 c2 B2 A2  | \
w:   |  Gök yü zün de   |  yal nız  ge zen   | 
A2 G2 G2 ^F2 G8  | 
w:  yıl *  dız *  lar    | 
z2 G2 A2 B2 c2 =B2 c4  | z2 c4 c2 c4 c4  | \
w:  SAZ  |  Yer yü zün de   | 
c2 d4 d2 d4 c4  | B2 B4 c2 d8  | 
w:  si zin  ka dar   |  *  yal nı zım    | 
z2 e2 c2 d2 B2 c2 A2 B2  | z2 B4 B2 B4 B4  | \
w:  SAZ  |  Gök yü zün de   | 
A4 c4 c2 c2 B2 A2  | A2 G2 G2 ^F2 G8  | 
w:  yal nız  ge zen   |  yıl *  dız *  lar    | 
z2 G2 A2 B2 c2 =B2 c4  | z2 c4 c2 c4 c4  | \
w:  SAZ  |  Yer yü zün de   | 
c2 d4 d2 d4 c4  | B2 B4 c2 d8  | 
w:  si zin  ka dar   |  *  yal nı zım    | 
z2 d2 e2 f2 g2 f2 e2 d2  | d4 e4 f4 g4  | \
w:  SAZ  |  Bir  hay kır sam   | 
f2 f4 e2 e2 d2 d2 c2  | c2 d2 B2 A2 B8  | 
w:  *  bel ki  du yu  |  lur  *  *  se sim    | 
A4 B4 c2 c6  | B4 c4 d2 d6  | z2 B4 ^F2 G8  | \
w:  Ben  yal nı zım    |  ben  yal nı zım    |  yal nı zım    | 
z2 d2 e2 f2 g2 f2 e2 d2  | d4 e4 f4 g4  | 
w:  SAZ  |  Bir  hay kır sam   | 
f2 f4 e2 e2 d2 d2 c2  | c2 d2 B2 A2 B8  | \
w:  *  bel ki  du yu  |  lur  *  *  se sim    | 
A4 B4 c2 c6  | B4 c4 d2 d6  | z2 B4 ^F2 G8  | 
w:  Ben  yal nı zım    |  ben  yal nı zım    |  yal nı zım    | 
z2 d2 e2 ^f2 g2 f2 g4  | z4 ^f2 g2 g4 g4  | \
w:  SAZ  |  Ka de rim  bu   | 
z2 a4 b2 a2 g4 ^f2  | ^f6 g2 a8  | 
w:  böy le  ya zıl  |  mış  ya zım    | 
z2 b2 a2 g2 ^f2 g2 a4  | a4 b4 b2 b4 a2  | \
w:  SAZ  |  Hiç  kim se nin   | 
a2 g2 g2 f2 f2 e2 d2 f2  | f2 f2 e2 d2 d8  | 
w:  aş *  kın *  da  yok  |  *  tur  *  gö züm    | 
z2 d2 e2 f2 g2 f2 e2 d2  | d4 e4 f4 g4  | \
w:  SAZ  |  Bir  hay kır sam   | 
f2 f4 e2 e2 d2 d2 c2  | c2 d2 B2 A2 B8  | 
w:  *  bel ki  du yu  |  lur  *  *  se sim    | 
A4 B4 c2 c6  | B4 c4 d2 d6  | z2 B4 ^F2 G8  | |


